flaticon/holiday/easter-bunny.svg

<svg xmlns="http://www.w3.org/2000/svg" width="32" height="32" viewBox="0 0 24 24">
    <path d="M 20.09375 10.199219 C 20.21875 10.617188 20.589844 10.894531 21.023438 10.894531 C 21.03125 10.894531 21.035156 10.894531 21.042969 10.894531 C 21.484375 10.886719 21.859375 10.59375 21.96875 10.167969 L 23.945312 2.539062 C 24.078125 2.035156 23.96875 1.511719 23.648438 1.097656 C 23.332031 0.683594 22.847656 0.449219 22.328125 0.449219 L 17.761719 0.449219 L 17.550781 0.414062 L 14.769531 4.789062 C 13.898438 4.386719 12.957031 4.167969 11.972656 4.167969 C 11.003906 4.167969 10.078125 4.378906 9.21875 4.765625 L 6.589844 0.636719 L 6.441406 0.414062 L 6.242188 0.449219 L 1.671875 0.449219 C 1.152344 0.449219 0.667969 0.683594 0.351562 1.097656 C 0.03125 1.507812 -0.078125 2.035156 0.0546875 2.539062 L 2.03125 10.167969 C 2.140625 10.59375 2.515625 10.886719 2.957031 10.894531 C 2.964844 10.894531 2.96875 10.894531 2.972656 10.894531 C 3.410156 10.894531 3.78125 10.617188 3.90625 10.199219 L 5.09375 6.195312 L 6.183594 7.226562 C 4.84375 8.964844 4.019531 11.304688 4.019531 13.875 C 4.019531 14.203125 4.035156 14.535156 4.0625 14.871094 C 3.230469 15.109375 2.59375 15.4375 2.175781 15.855469 L 1.472656 16.5625 L 3.535156 16.5625 C 3.433594 16.636719 3.332031 16.707031 3.238281 16.777344 C 2.605469 17.222656 2.011719 17.648438 1.75 17.9375 L 1.050781 18.710938 L 3.800781 18.484375 C 3.125 18.964844 2.648438 19.355469 2.5 19.707031 L 2.238281 20.339844 L 4.664062 20.121094 C 4.546875 20.195312 4.425781 20.273438 4.316406 20.34375 L 3.4375 20.894531 L 4.453125 21.097656 C 5.28125 21.265625 7.601562 21.863281 8.375 22.636719 C 8.589844 22.855469 8.851562 22.960938 9.132812 22.945312 C 10.039062 23.371094 10.996094 23.585938 11.972656 23.585938 C 12.949219 23.585938 13.902344 23.371094 14.8125 22.945312 C 15.09375 22.960938 15.351562 22.855469 15.570312 22.636719 C 16.34375 21.863281 18.660156 21.265625 19.488281 21.097656 L 20.503906 20.894531 L 19.628906 20.34375 C 19.515625 20.273438 19.398438 20.195312 19.28125 20.121094 L 21.707031 20.339844 L 21.441406 19.707031 C 21.296875 19.355469 20.820312 18.964844 20.140625 18.484375 L 22.890625 18.710938 L 22.195312 17.9375 C 21.933594 17.648438 21.335938 17.222656 20.707031 16.777344 C 20.613281 16.707031 20.507812 16.636719 20.40625 16.5625 L 22.472656 16.5625 L 21.765625 15.855469 C 21.347656 15.4375 20.714844 15.105469 19.878906 14.871094 C 19.90625 14.535156 19.921875 14.203125 19.921875 13.875 C 19.921875 11.320312 19.109375 8.992188 17.78125 7.257812 L 18.90625 6.195312 Z M 22.328125 1.273438 C 22.589844 1.273438 22.835938 1.394531 22.996094 1.601562 C 23.15625 1.8125 23.210938 2.078125 23.144531 2.332031 L 21.167969 9.957031 C 21.144531 10.046875 21.078125 10.070312 21.027344 10.070312 C 20.976562 10.070312 20.910156 10.050781 20.886719 9.964844 L 18.308594 1.273438 Z M 3.113281 9.964844 C 3.089844 10.054688 3.019531 10.070312 2.972656 10.070312 C 2.921875 10.070312 2.855469 10.046875 2.832031 9.957031 L 0.855469 2.332031 C 0.789062 2.078125 0.84375 1.8125 1.003906 1.601562 C 1.164062 1.394531 1.410156 1.273438 1.671875 1.273438 L 5.691406 1.273438 L 4.417969 5.5625 Z M 5.355469 5.308594 L 5.527344 4.730469 L 6.382812 1.847656 L 8.484375 5.152344 C 7.84375 5.535156 7.25 6.023438 6.71875 6.59375 Z M 19.339844 15.585938 C 19.53125 15.628906 19.710938 15.679688 19.882812 15.734375 L 18.945312 15.734375 L 18.878906 16.066406 C 18.800781 16.433594 19.074219 16.628906 20.230469 17.449219 C 20.335938 17.527344 20.453125 17.605469 20.566406 17.6875 L 18.476562 17.515625 L 18.363281 17.800781 C 18.222656 18.15625 18.449219 18.316406 19.207031 18.835938 C 19.382812 18.957031 19.660156 19.152344 19.925781 19.347656 L 17.707031 19.148438 L 17.476562 19.523438 L 17.515625 19.691406 C 17.542969 19.8125 17.578125 19.960938 18.378906 20.515625 C 17.339844 20.792969 15.722656 21.316406 14.984375 22.054688 C 14.90625 22.136719 14.863281 22.125 14.832031 22.117188 L 14.691406 22.085938 L 14.5625 22.148438 C 12.902344 22.960938 11.039062 22.960938 9.382812 22.148438 L 9.253906 22.085938 L 9.113281 22.117188 C 9.078125 22.125 9.039062 22.132812 8.957031 22.054688 C 8.222656 21.316406 6.605469 20.792969 5.5625 20.515625 C 6.367188 19.960938 6.398438 19.8125 6.425781 19.691406 L 6.464844 19.503906 L 6.234375 19.148438 L 4.015625 19.347656 C 4.285156 19.152344 4.5625 18.957031 4.738281 18.835938 C 5.492188 18.316406 5.722656 18.15625 5.582031 17.800781 L 5.46875 17.515625 L 3.378906 17.6875 C 3.492188 17.609375 3.605469 17.527344 3.714844 17.449219 C 4.867188 16.628906 5.140625 16.433594 5.066406 16.066406 L 5 15.734375 L 4.0625 15.734375 C 4.230469 15.679688 4.414062 15.628906 4.605469 15.585938 L 4.960938 15.5 L 4.917969 15.136719 C 4.871094 14.710938 4.847656 14.285156 4.847656 13.875 C 4.847656 11.523438 5.589844 9.390625 6.789062 7.796875 L 6.808594 7.816406 L 7.089844 7.476562 C 7.730469 6.710938 8.464844 6.105469 9.273438 5.683594 L 9.628906 5.496094 C 10.363281 5.175781 11.148438 4.992188 11.972656 4.992188 C 12.953125 4.992188 13.890625 5.242188 14.742188 5.691406 C 14.753906 5.695312 14.761719 5.703125 14.773438 5.710938 C 14.96875 5.816406 15.164062 5.929688 15.347656 6.054688 C 15.402344 6.09375 15.453125 6.136719 15.507812 6.171875 C 15.648438 6.273438 15.785156 6.375 15.921875 6.488281 C 15.996094 6.550781 16.066406 6.621094 16.140625 6.683594 C 16.246094 6.78125 16.351562 6.875 16.453125 6.980469 C 16.539062 7.066406 16.621094 7.160156 16.703125 7.25 C 18.167969 8.878906 19.097656 11.242188 19.097656 13.875 C 19.097656 14.285156 19.070312 14.710938 19.023438 15.136719 L 18.980469 15.5 Z M 17.253906 6.621094 C 17.183594 6.539062 17.105469 6.464844 17.03125 6.390625 C 17.027344 6.386719 17.027344 6.386719 17.023438 6.382812 C 16.632812 5.988281 16.214844 5.644531 15.773438 5.351562 C 15.761719 5.34375 15.75 5.332031 15.734375 5.324219 C 15.65625 5.273438 15.582031 5.21875 15.503906 5.171875 L 17.617188 1.847656 L 18.644531 5.308594 Z M 17.253906 6.621094"/>
    <path d="M 16.308594 14.875 C 16.707031 14.027344 16.929688 12.941406 16.929688 11.808594 C 16.929688 11.675781 16.925781 11.539062 16.917969 11.398438 C 16.914062 11.285156 16.90625 11.179688 16.894531 11.070312 C 16.894531 11.054688 16.894531 11.042969 16.890625 11.027344 L 16.882812 10.941406 C 16.660156 8.707031 15.582031 7.058594 14.242188 7.058594 C 13.273438 7.058594 12.441406 7.925781 11.972656 9.253906 C 11.5 7.925781 10.667969 7.058594 9.699219 7.058594 C 8.359375 7.058594 7.285156 8.707031 7.058594 10.941406 L 7.050781 11.027344 C 7.050781 11.042969 7.046875 11.054688 7.046875 11.070312 C 7.039062 11.179688 7.027344 11.285156 7.023438 11.398438 C 7.015625 11.539062 7.011719 11.675781 7.011719 11.808594 C 7.011719 12.941406 7.238281 14.027344 7.632812 14.875 C 6.765625 15.316406 6.1875 16.089844 6.1875 16.96875 C 6.1875 18.335938 7.574219 19.449219 9.285156 19.449219 C 9.496094 19.449219 9.703125 19.433594 9.902344 19.398438 L 10.292969 21.214844 C 10.355469 21.433594 10.523438 21.609375 10.738281 21.683594 L 11.96875 21.9375 L 13.152344 21.695312 L 13.199219 21.683594 C 13.417969 21.609375 13.585938 21.433594 13.652344 21.1875 L 14.039062 19.398438 C 14.238281 19.433594 14.445312 19.449219 14.65625 19.449219 C 16.363281 19.449219 17.753906 18.335938 17.753906 16.96875 C 17.757812 16.089844 17.175781 15.316406 16.308594 14.875 Z M 15.160156 14.527344 C 15.125 14.523438 15.089844 14.515625 15.050781 14.511719 C 14.921875 14.5 14.792969 14.492188 14.65625 14.492188 C 14.535156 14.492188 14.414062 14.496094 14.296875 14.507812 C 14.261719 14.511719 14.226562 14.519531 14.191406 14.523438 C 14.105469 14.53125 14.023438 14.546875 13.941406 14.5625 C 13.921875 14.566406 13.898438 14.566406 13.878906 14.570312 L 13.6875 14.378906 C 13.621094 14.3125 13.550781 14.25 13.476562 14.191406 C 13.457031 14.179688 13.441406 14.167969 13.421875 14.152344 C 13.359375 14.105469 13.296875 14.0625 13.230469 14.023438 C 13.214844 14.015625 13.203125 14.003906 13.1875 13.996094 C 13.019531 13.898438 12.839844 13.820312 12.648438 13.765625 C 12.476562 13.164062 12.386719 12.492188 12.386719 11.808594 C 12.386719 11.574219 12.398438 11.339844 12.417969 11.113281 C 12.421875 11.089844 12.421875 11.0625 12.425781 11.039062 C 12.445312 10.820312 12.476562 10.605469 12.519531 10.394531 C 12.523438 10.378906 12.523438 10.359375 12.527344 10.34375 C 13.71875 9.601562 15.09375 9.953125 16.078125 11.214844 C 16.078125 11.21875 16.078125 11.222656 16.078125 11.226562 C 16.097656 11.429688 16.105469 11.621094 16.105469 11.808594 C 16.105469 12.851562 15.898438 13.847656 15.53125 14.589844 C 15.511719 14.585938 15.488281 14.582031 15.46875 14.578125 C 15.367188 14.558594 15.265625 14.539062 15.160156 14.527344 Z M 12.625 15.105469 C 12.566406 15.144531 12.507812 15.183594 12.453125 15.230469 C 12.417969 15.261719 12.382812 15.292969 12.347656 15.324219 C 12.304688 15.359375 12.265625 15.398438 12.226562 15.4375 C 12.195312 15.46875 12.164062 15.503906 12.136719 15.535156 C 12.097656 15.578125 12.058594 15.625 12.023438 15.667969 C 12.007812 15.691406 11.988281 15.710938 11.972656 15.734375 C 11.957031 15.710938 11.9375 15.691406 11.917969 15.667969 C 11.882812 15.625 11.847656 15.578125 11.808594 15.535156 C 11.78125 15.503906 11.75 15.46875 11.714844 15.4375 C 11.679688 15.398438 11.636719 15.359375 11.597656 15.324219 C 11.5625 15.292969 11.527344 15.261719 11.488281 15.230469 C 11.4375 15.1875 11.378906 15.144531 11.320312 15.105469 C 11.269531 15.066406 11.210938 15.03125 11.15625 15 C 11.097656 14.964844 11.042969 14.929688 10.980469 14.898438 C 10.96875 14.890625 10.957031 14.882812 10.945312 14.875 C 10.957031 14.867188 10.964844 14.855469 10.976562 14.847656 C 11.027344 14.808594 11.074219 14.773438 11.125 14.742188 C 11.148438 14.730469 11.167969 14.714844 11.191406 14.703125 C 11.667969 14.441406 12.277344 14.441406 12.753906 14.703125 C 12.777344 14.714844 12.796875 14.730469 12.816406 14.742188 C 12.871094 14.773438 12.917969 14.808594 12.964844 14.847656 C 12.976562 14.855469 12.988281 14.867188 13 14.875 C 12.988281 14.882812 12.976562 14.890625 12.964844 14.898438 C 12.902344 14.929688 12.84375 14.964844 12.789062 15 C 12.730469 15.03125 12.675781 15.066406 12.625 15.105469 Z M 14.246094 7.886719 C 14.839844 7.886719 15.480469 8.625 15.832031 9.820312 C 15.222656 9.367188 14.539062 9.125 13.832031 9.125 C 13.496094 9.125 13.167969 9.179688 12.84375 9.285156 C 13.210938 8.410156 13.742188 7.886719 14.246094 7.886719 Z M 9.699219 7.886719 C 10.199219 7.886719 10.734375 8.410156 11.101562 9.285156 C 10.777344 9.179688 10.449219 9.125 10.113281 9.125 C 9.40625 9.125 8.722656 9.367188 8.109375 9.820312 C 8.464844 8.625 9.105469 7.886719 9.699219 7.886719 Z M 8.414062 14.589844 C 8.046875 13.847656 7.839844 12.855469 7.839844 11.808594 C 7.839844 11.625 7.847656 11.429688 7.863281 11.226562 C 7.863281 11.222656 7.863281 11.21875 7.863281 11.21875 C 8.851562 9.953125 10.226562 9.601562 11.417969 10.347656 C 11.417969 10.363281 11.421875 10.378906 11.425781 10.394531 C 11.464844 10.605469 11.5 10.820312 11.519531 11.039062 C 11.523438 11.066406 11.523438 11.089844 11.527344 11.113281 C 11.546875 11.34375 11.558594 11.574219 11.558594 11.8125 C 11.558594 12.492188 11.46875 13.164062 11.296875 13.765625 C 11.105469 13.820312 10.925781 13.898438 10.753906 14 C 10.742188 14.007812 10.726562 14.015625 10.714844 14.023438 C 10.648438 14.0625 10.585938 14.109375 10.523438 14.152344 C 10.503906 14.167969 10.484375 14.179688 10.46875 14.195312 C 10.394531 14.253906 10.324219 14.3125 10.257812 14.382812 L 10.066406 14.570312 C 10.046875 14.566406 10.027344 14.566406 10.007812 14.5625 C 9.910156 14.542969 9.808594 14.527344 9.707031 14.519531 C 9.683594 14.515625 9.660156 14.511719 9.636719 14.507812 C 9.523438 14.5 9.40625 14.492188 9.285156 14.492188 C 9.277344 14.492188 9.265625 14.492188 9.253906 14.492188 C 9.230469 14.492188 9.207031 14.496094 9.183594 14.496094 C 9.078125 14.5 8.976562 14.503906 8.875 14.515625 C 8.835938 14.519531 8.800781 14.523438 8.765625 14.53125 C 8.667969 14.542969 8.574219 14.558594 8.480469 14.582031 C 8.457031 14.582031 8.433594 14.585938 8.414062 14.589844 Z M 7.015625 16.96875 C 7.015625 16.320312 7.53125 15.761719 8.28125 15.492188 L 8.339844 15.46875 C 8.476562 15.425781 8.617188 15.390625 8.761719 15.363281 C 8.765625 15.363281 8.765625 15.363281 8.765625 15.363281 C 8.90625 15.339844 9.046875 15.324219 9.1875 15.320312 C 9.199219 15.320312 9.210938 15.320312 9.21875 15.320312 C 9.359375 15.316406 9.496094 15.324219 9.632812 15.339844 C 9.644531 15.339844 9.652344 15.339844 9.660156 15.34375 C 9.796875 15.359375 9.933594 15.386719 10.066406 15.421875 L 10.082031 15.425781 C 10.847656 15.636719 11.394531 16.132812 11.527344 16.703125 C 11.527344 16.714844 11.53125 16.726562 11.535156 16.738281 C 11.546875 16.816406 11.558594 16.890625 11.558594 16.96875 C 11.558594 17.128906 11.527344 17.28125 11.46875 17.421875 C 11.273438 17.914062 10.761719 18.320312 10.105469 18.507812 L 10.011719 18.535156 C 9.785156 18.589844 9.539062 18.621094 9.285156 18.621094 C 8.035156 18.625 7.015625 17.882812 7.015625 16.96875 Z M 13.246094 19.175781 L 12.871094 20.910156 L 12.386719 21.007812 L 12.386719 19.449219 C 12.386719 19.222656 12.199219 19.035156 11.972656 19.035156 C 11.742188 19.035156 11.558594 19.222656 11.558594 19.449219 L 11.558594 21.007812 L 11.074219 20.910156 L 10.699219 19.175781 C 10.707031 19.171875 10.710938 19.167969 10.71875 19.167969 C 10.835938 19.117188 10.949219 19.0625 11.054688 19.003906 C 11.082031 18.988281 11.105469 18.972656 11.132812 18.957031 C 11.214844 18.910156 11.292969 18.855469 11.367188 18.800781 C 11.394531 18.78125 11.421875 18.761719 11.449219 18.742188 C 11.535156 18.675781 11.617188 18.601562 11.695312 18.527344 C 11.722656 18.5 11.746094 18.472656 11.769531 18.445312 C 11.824219 18.386719 11.875 18.328125 11.921875 18.269531 C 11.9375 18.246094 11.957031 18.230469 11.972656 18.210938 C 11.988281 18.230469 12.007812 18.25 12.023438 18.269531 C 12.070312 18.328125 12.121094 18.386719 12.171875 18.445312 C 12.199219 18.472656 12.222656 18.5 12.25 18.527344 C 12.324219 18.601562 12.40625 18.675781 12.496094 18.742188 C 12.519531 18.761719 12.550781 18.78125 12.578125 18.800781 C 12.652344 18.855469 12.730469 18.910156 12.8125 18.957031 C 12.839844 18.972656 12.863281 18.988281 12.890625 19.003906 C 12.996094 19.0625 13.109375 19.117188 13.226562 19.167969 C 13.234375 19.167969 13.238281 19.171875 13.246094 19.175781 Z M 14.65625 18.625 C 14.402344 18.625 14.160156 18.589844 13.933594 18.535156 L 13.839844 18.507812 C 13.179688 18.320312 12.671875 17.914062 12.472656 17.425781 C 12.417969 17.28125 12.386719 17.128906 12.386719 16.972656 C 12.386719 16.890625 12.394531 16.816406 12.410156 16.738281 C 12.414062 16.726562 12.414062 16.714844 12.417969 16.703125 C 12.550781 16.132812 13.097656 15.636719 13.859375 15.425781 L 13.878906 15.421875 C 14.011719 15.386719 14.144531 15.359375 14.28125 15.34375 C 14.292969 15.339844 14.300781 15.339844 14.308594 15.339844 C 14.445312 15.324219 14.585938 15.316406 14.722656 15.320312 C 14.734375 15.320312 14.746094 15.320312 14.757812 15.320312 C 14.898438 15.324219 15.039062 15.339844 15.175781 15.363281 C 15.179688 15.363281 15.179688 15.363281 15.179688 15.363281 C 15.324219 15.390625 15.46875 15.425781 15.605469 15.472656 L 15.664062 15.492188 C 16.414062 15.761719 16.929688 16.324219 16.929688 16.972656 C 16.929688 17.882812 15.910156 18.625 14.65625 18.625 Z M 14.65625 18.625"/>
    <path d="M9.660156 14.082031C10.152344 14.082031 10.558594 13.628906 10.632812 13.035156 10.5625 13.070312 10.484375 13.089844 10.402344 13.089844 9.992188 13.089844 9.660156 12.648438 9.660156 12.097656 9.660156 11.921875 9.695312 11.757812 9.757812 11.617188 9.722656 11.613281 9.691406 11.605469 9.660156 11.605469 9.109375 11.605469 8.667969 12.160156 8.667969 12.84375 8.667969 13.527344 9.109375 14.082031 9.660156 14.082031zM14.289062 12.097656C14.289062 11.921875 14.324219 11.757812 14.386719 11.617188 14.355469 11.613281 14.320312 11.605469 14.289062 11.605469 13.742188 11.605469 13.296875 12.160156 13.296875 12.84375 13.296875 13.527344 13.742188 14.082031 14.289062 14.082031 14.78125 14.082031 15.191406 13.628906 15.265625 13.035156 15.191406 13.070312 15.113281 13.089844 15.03125 13.089844 14.621094 13.089844 14.289062 12.648438 14.289062 12.097656zM14.289062 12.097656"/>
</svg>

<svg xmlns="http://www.w3.org/2000/svg" width="32" height="32" viewBox="0 0 24 24">
    <path d="M20.094 10.2a.962.962 0 0 0 .93.695h.019a.965.965 0 0 0 .926-.727l1.976-7.629a1.65 1.65 0 0 0-.297-1.441 1.65 1.65 0 0 0-1.32-.649h-4.566L17.55.414 14.77 4.79a6.634 6.634 0 0 0-2.797-.621c-.97 0-1.895.21-2.754.598L6.589.636 6.442.415 6.242.45h-4.57a1.65 1.65 0 0 0-1.32.649c-.32.41-.43.937-.297 1.441l1.976 7.629c.11.426.485.719.926.727h.016a.963.963 0 0 0 .933-.696l1.188-4.004 1.09 1.032c-1.34 1.738-2.164 4.078-2.164 6.648 0 .328.015.66.043.996-.833.238-1.47.566-1.887.984l-.703.707h2.062c-.101.075-.203.145-.297.215-.633.446-1.226.871-1.488 1.16l-.7.774 2.75-.227c-.675.48-1.152.871-1.3 1.223l-.262.633 2.426-.219-.348.223-.878.55 1.015.204c.828.168 3.149.765 3.922 1.539a.967.967 0 0 0 .758.308c.906.426 1.863.64 2.84.64a6.65 6.65 0 0 0 2.84-.64c.28.016.539-.09.757-.308.774-.774 3.09-1.371 3.918-1.54l1.016-.202-.875-.551c-.113-.07-.23-.149-.348-.223l2.426.219-.266-.633c-.144-.352-.62-.742-1.3-1.223l2.75.227-.696-.773c-.261-.29-.86-.715-1.488-1.16-.094-.071-.2-.141-.3-.215h2.066l-.707-.708c-.418-.418-1.051-.75-1.887-.984.027-.336.043-.668.043-.996 0-2.555-.813-4.883-2.14-6.617l1.124-1.063zm2.234-8.927a.844.844 0 0 1 .817 1.059l-1.977 7.625a.14.14 0 0 1-.14.113c-.051 0-.118-.02-.141-.105l-2.578-8.692zM3.113 9.965c-.023.09-.093.105-.14.105a.14.14 0 0 1-.141-.113L.855 2.332a.846.846 0 0 1 .817-1.059h4.02l-1.274 4.29zm2.242-4.656l.172-.579.856-2.882 2.101 3.304A8.116 8.116 0 0 0 6.72 6.594zM19.34 15.586c.191.043.37.094.543.148h-.938l-.066.332c-.078.368.195.563 1.351 1.383.106.078.223.156.336.238l-2.09-.171-.113.285c-.14.355.086.515.844 1.035.176.121.453.316.719.512l-2.219-.2-.23.375.039.168c.027.122.062.27.863.825-1.04.277-2.656.8-3.395 1.539-.078.082-.12.07-.152.062l-.14-.031-.13.062a5.808 5.808 0 0 1-5.18 0l-.128-.062-.14.031c-.036.008-.075.016-.157-.062-.734-.739-2.352-1.262-3.395-1.54.805-.554.836-.703.864-.824l.039-.187-.23-.356-2.22.2c.27-.196.548-.391.723-.512.754-.52.985-.68.844-1.035l-.113-.285-2.09.172c.113-.079.226-.16.336-.239 1.152-.82 1.426-1.015 1.351-1.383L5 15.734h-.938a6.04 6.04 0 0 1 .543-.148l.356-.086-.043-.363c-.047-.426-.07-.852-.07-1.262 0-2.352.742-4.484 1.941-6.078l.02.02.28-.34c.641-.766 1.376-1.372 2.184-1.793l.356-.188a5.831 5.831 0 0 1 2.344-.504c.98 0 1.918.25 2.77.7.01.003.019.011.03.019.196.105.391.219.575.344.054.039.105.082.16.117.14.101.277.203.414.316.074.063.144.133.219.196.105.097.21.191.312.296.086.086.168.18.25.27 1.465 1.629 2.395 3.992 2.395 6.625 0 .41-.028.836-.075 1.262l-.043.363zM17.254 6.62c-.07-.082-.149-.156-.223-.23l-.008-.008a7.93 7.93 0 0 0-1.25-1.031c-.011-.008-.023-.02-.039-.028-.078-.05-.152-.105-.23-.152l2.113-3.324 1.028 3.46zm0 0"/>
    <path d="M16.309 14.875c.398-.848.62-1.934.62-3.066 0-.133-.003-.27-.011-.41a4.47 4.47 0 0 0-.023-.329c0-.015 0-.027-.004-.043l-.008-.086c-.223-2.234-1.301-3.882-2.64-3.882-.97 0-1.802.867-2.27 2.195-.473-1.328-1.305-2.195-2.274-2.195-1.34 0-2.414 1.648-2.64 3.882l-.008.086c0 .016-.004.028-.004.043-.008.11-.02.215-.024.328-.007.141-.011.278-.011.41 0 1.133.226 2.22.62 3.067-.866.441-1.444 1.215-1.444 2.094 0 1.367 1.386 2.48 3.097 2.48.211 0 .418-.015.617-.05l.391 1.816c.062.219.23.394.445.469l1.23.253 1.184-.242.047-.011a.701.701 0 0 0 .453-.497l.387-1.789c.2.036.406.051.617.051 1.707 0 3.098-1.113 3.098-2.48.004-.88-.578-1.653-1.445-2.094zm-1.149-.348c-.035-.004-.07-.011-.11-.015a4.303 4.303 0 0 0-.753-.004c-.035.004-.07.012-.106.015-.086.008-.168.024-.25.04-.02.003-.043.003-.062.007l-.191-.191a2.41 2.41 0 0 0-.211-.188.474.474 0 0 1-.055-.039 2.05 2.05 0 0 0-.192-.129c-.015-.007-.027-.02-.043-.027a2.36 2.36 0 0 0-.539-.23 7.2 7.2 0 0 1-.261-1.957c0-.235.011-.47.031-.696.004-.023.004-.05.008-.074.02-.219.05-.434.094-.644.003-.016.003-.036.007-.051 1.192-.742 2.567-.39 3.551.87v.013c.02.203.027.394.027.582 0 1.043-.207 2.039-.574 2.78l-.062-.01c-.102-.02-.203-.04-.309-.052zm-2.535.578c-.059.04-.117.079-.172.125l-.105.094a2.041 2.041 0 0 0-.21.21c-.04.044-.08.091-.115.134-.015.023-.035.043-.05.066-.016-.023-.036-.043-.055-.066-.035-.043-.07-.09-.11-.133a1.084 1.084 0 0 0-.093-.098 1.604 1.604 0 0 0-.117-.113c-.036-.031-.07-.062-.11-.094a1.875 1.875 0 0 0-.168-.125c-.05-.039-.11-.074-.164-.105-.058-.035-.113-.07-.176-.102l-.035-.023c.012-.008.02-.02.032-.027.05-.04.097-.075.148-.106.023-.012.043-.027.066-.039a1.653 1.653 0 0 1 1.563 0c.023.012.043.027.062.04.055.03.102.066.149.105.012.007.023.02.035.027l-.035.023a1.885 1.885 0 0 0-.176.102 1.176 1.176 0 0 0-.164.105zm1.621-7.218c.594 0 1.234.738 1.586 1.933-.61-.453-1.293-.695-2-.695-.336 0-.664.055-.988.16.367-.875.898-1.398 1.402-1.398zm-4.547 0c.5 0 1.035.523 1.403 1.398a3.172 3.172 0 0 0-.989-.16c-.707 0-1.39.242-2.004.695.356-1.195.996-1.933 1.59-1.933zM8.414 14.59c-.367-.742-.574-1.735-.574-2.781 0-.184.008-.38.023-.582v-.008c.989-1.266 2.364-1.617 3.555-.871 0 .015.004.03.008.047.039.21.074.425.094.644.003.027.003.05.007.074.02.23.032.461.032.7 0 .68-.09 1.351-.262 1.953a2.305 2.305 0 0 0-.543.234l-.04.023c-.066.04-.128.086-.19.13-.02.015-.04.027-.055.042a1.906 1.906 0 0 0-.211.188l-.192.187c-.02-.004-.039-.004-.058-.008-.098-.019-.2-.035-.301-.042l-.07-.012a5.065 5.065 0 0 0-.352-.016h-.031c-.024 0-.047.004-.07.004a3.963 3.963 0 0 0-.309.02.921.921 0 0 0-.11.015 2.29 2.29 0 0 0-.285.051.344.344 0 0 0-.066.008zm-1.398 2.379c0-.649.515-1.207 1.265-1.477l.059-.023a3.7 3.7 0 0 1 .422-.106h.004c.14-.023.28-.039.421-.043h.032a2.912 2.912 0 0 1 .441.024c.137.015.274.043.406.078l.016.004c.766.21 1.313.707 1.445 1.277 0 .012.004.024.008.035.012.078.024.153.024.23 0 .16-.032.313-.09.454-.196.492-.707.898-1.364 1.086l-.093.027a3.111 3.111 0 0 1-.727.086c-1.25.004-2.27-.738-2.27-1.652zm6.23 2.207l-.375 1.734-.484.098v-1.559a.414.414 0 0 0-.828 0v1.559l-.485-.098-.375-1.734c.008-.004.012-.008.02-.008.117-.05.23-.105.336-.164l.078-.047c.082-.047.16-.102.234-.156l.082-.059a3.23 3.23 0 0 0 .246-.215c.028-.027.051-.054.075-.082.054-.058.105-.117.152-.175.015-.024.035-.04.05-.06.016.02.036.04.051.06.047.058.098.117.149.175.027.028.05.055.078.082.074.075.156.149.246.215.024.02.055.04.082.059.074.054.152.11.235.156l.078.047c.105.058.218.113.336.164.007 0 .011.004.02.008zm1.41-.551c-.254 0-.496-.035-.722-.09l-.094-.027c-.66-.188-1.168-.594-1.367-1.082a1.279 1.279 0 0 1-.086-.453c0-.082.008-.157.023-.235.004-.011.004-.023.008-.035.133-.57.68-1.066 1.441-1.277l.02-.004c.133-.035.266-.063.402-.078.012-.004.02-.004.028-.004a2.94 2.94 0 0 1 .414-.02h.035c.14.004.281.02.418.043h.004c.144.028.289.063.425.11l.06.02c.75.269 1.265.831 1.265 1.48 0 .91-1.02 1.652-2.274 1.652zm0 0"/>
    <path d="M9.66 14.082c.492 0 .899-.453.973-1.047a.514.514 0 0 1-.23.055c-.41 0-.743-.442-.743-.992 0-.176.035-.34.098-.48-.035-.005-.067-.013-.098-.013-.55 0-.992.555-.992 1.239 0 .683.441 1.238.992 1.238zm0 0M14.29 12.098c0-.176.034-.34.097-.48-.032-.005-.067-.013-.098-.013-.547 0-.992.555-.992 1.239 0 .683.445 1.238.992 1.238.492 0 .902-.453.977-1.047a.543.543 0 0 1-.235.055c-.41 0-.742-.442-.742-.992zm0 0"/>
</svg>
